X:1
T:Title
%%score { 1 | 2 }
L:1/8
M:6/8
K:Eb
V:1 treble nm="Grand Piano"
V:2 bass 
V:1
 z3 z2[Q:1/4=100] B | BcB BGE | GGA B3 | EE>E EFG | [DF]3- [DF]2 [DB] | BcB BGE | %6
 [EA][EG][EA] [Ec]3 | [EG][EB]>[EB] [DB][DA][DF] |[M:5/8] E-E- E3 |[M:1/8] [GB] | %10
[M:3/4] [GB]>[_G=A] [=GB] [Ad]2 c | B>=A B [Ge]3 | [Ge]>[Gd] [Gc]B FB | dd- d/c/ [DB]3 | %14
 [EG][EG] [FA][GB] [_G=A][=GB] | c=B c e3 | GB- B/[EB]/[DB] [DA][DF] |[M:5/8] E-E- E3 |] %18
V:2
 z3 z2 [E,G,E] | [E,G,E][E,A,E][E,G,E] [E,G,E][E,B,E][E,G,] | [E,B,E][E,B,E][E,B,E] [E,G,E]3 | %3
 [C,G,][C,G,]>[C,G,] [F,=A,][F,A,E][F,A,E] | [B,,B,]3- [B,,B,]2 [B,,A,] | %5
 [E,G,E][E,A,E][E,G,E] [E,G,E][E,B,E][E,G,] | [C,A,][C,A,][C,A,] [A,,A,]3 | %7
 [B,,G,][B,,G,]>[B,,G,] [B,,F,][B,,F,][B,,A,] |[M:5/8] [E,G,]-[E,G,]- [E,G,]3 |[M:1/8] [E,B,] | %10
[M:3/4] [E,E]>[E,E] [E,E] [F,B,]2 [F,B,D] | [G,B,E]>[G,B,E] [G,B,E] [E,B,]3 | %12
 [C,C]>[D,C] [E,C][F,DF] [F,B,D][F,B,D] | [F,B,F][F,B,F]- [F,B,F]/[F,=A,E]/ [B,,B,]3 | %14
 [E,B,][E,B,] [E,B,][E,E] [E,E][E,E] | [A,EA][A,DA] [A,EA] [A,C_G]3 | %16
 [B,E][B,EG]- [B,EG]/[K:bass][B,,G,]/[B,,F,] [B,,F,][B,,A,] |[M:5/8] [E,G,]-[E,G,]- [E,G,]3 |] %18

